X:8
T:Bimid ag ol is a' pogadh na mban
Z: id:dc-jig-5
M:6/8
L:1/8
K:G Major
zF|DGA B3|cBc d3|DGA B2d|cAG AGF|!
DGA B3|cBc def|gbg afd|cAF G:|!
zD|GBd g3|gfd =f^ff|GBd g3|gfd cAG|!
GBd g3|gag f2g|abg afd|cAF G:|!
AG|FGA A2c|BAG cAG|FGA ded|cAF GAG|!
FGA cAG|Ade f3|gag fed|cAF G:|!

